X: 1
T: Biddlestone, The
M: 4/4
L: 1/8
R: hornpipe
K: Gmaj
D2|GdBG FAD2|EGce dBGB|(3cde (3ABc (3Bcd GB|ABAG FAdD|
GdBG FAD2|EGce dBGB|(3cde (3ABc (3Bcd Gd|ecAF G2:|
|:(3def|gdBg fad2|(3efg ce dBGB|(3cde (3ABc (3Bcd GB|A^ceg fdef|
gdBg fad2|(3efg ce dBGB|(3cde (3ABc (3Bcd Gd|ecAF G2:|
